X:12
T:Allemande
R:
C:Tielman Susato
H:
N:1
B:
O:Flandres
A:
Z:<anamnese@laposte.net> -- http://anamnese.fr.st
M:C
L:1/8
Q:1/4=110
K:C
V:1
(cd)ef g3 c' | bg a2 f4 | (cd)ef g3 c' | bg a2 f3 f |
a2 b2 c'3 b | a2 (gf) e3c | e2 a2 g3 c | e2 a2 g3 f |
ed/c/ (B/A/)B c3 c | e2 a2 g3 c | e2 a2 g3 f | ed/c/ (B/c/)d/B/ c4 :| 
V:2
c2 cd e2>e2 | B2 d2 B4 | c2>d2 e2>e2 | B2d2 B2>d2 | ff g2 c2 c2-|cA B2 c2>c2 |
c2c2 c3c | c2c2 c2>c2 | B2G2 G3 C | c2c2 c3c |c2c2 c3c | B2 G2 G4 :|
